X: 120920
T: Low Level
S: "First Collection of Traditional Irish Music" (M.Mulvihill)
Z: B.Black
Q: 250
L: 1/8
M: C|
R: hornpipe
K: Bb
(3EDC BF DBFd|Bfdb ag^fg|ecAc FcAc|gf=ef _ecAF|
(3EDC BF DBFd|Bfdb ag^fg|ec (3BdB FBGe|cA B2 BA B2 :|
K: F
dc (3cBc ac (3cBc|dc (3cBc ac (3cBc|(3bag ag gf=ef|
(3gag (3fed cBAc|dc (3cBc ac (3cBc|dc (3cBc ac (3cBc|\
bgec BGEG|FEFG FDAc :|
